src/assets/duotone/MusicSquare.svg

<svg width="24" height="24" viewBox="0 0 24 24"  xmlns="http://www.w3.org/2000/svg">
<path opacity="0.4" d="M16.1898 2H7.81976C4.17976 2 2.00977 4.17 2.00977 7.81V16.18C2.00977 19.82 4.17976 21.99 7.81976 21.99H16.1898C19.8298 21.99 21.9998 19.82 21.9998 16.18V7.81C21.9998 4.17 19.8298 2 16.1898 2Z" />
<path d="M16.1398 6.7099C15.7998 6.4499 15.1997 6.1999 14.2397 6.4599L11.2498 7.27991C10.3198 7.52991 9.70978 8.31986 9.70978 9.28986V11.0399V13.0699C9.49978 13.0099 9.28975 12.9698 9.05975 12.9698C7.76975 12.9698 6.71973 14.0199 6.71973 15.3099C6.71973 16.5999 7.76975 17.6499 9.05975 17.6499C10.3398 17.6499 11.3798 16.6099 11.3998 15.3399C11.3998 15.3299 11.4097 15.3199 11.4097 15.3099V11.6899L15.1898 10.6599V12.0799C14.9798 12.0199 14.7697 11.9799 14.5397 11.9799C13.2497 11.9799 12.1998 13.0299 12.1998 14.3199C12.1998 15.6099 13.2497 16.6599 14.5397 16.6599C15.8297 16.6599 16.8798 15.6099 16.8798 14.3199V9.55988V8.48987C16.8798 7.48987 16.4698 6.9699 16.1398 6.7099ZM9.05975 15.9599C8.69975 15.9599 8.40973 15.6699 8.40973 15.3099C8.40973 14.9499 8.69975 14.6599 9.05975 14.6599C9.41975 14.6599 9.70978 14.9499 9.70978 15.3099C9.70978 15.6699 9.41975 15.9599 9.05975 15.9599ZM14.5397 14.9599C14.1797 14.9599 13.8898 14.6699 13.8898 14.3099C13.8898 13.9499 14.1797 13.6599 14.5397 13.6599C14.8997 13.6599 15.1898 13.9499 15.1898 14.3099C15.1798 14.6699 14.8897 14.9599 14.5397 14.9599Z" />
</svg>

<?xml version="1.0" encoding="UTF-8"?>
<svg width="24" height="24" viewBox="0 0 24 24" xmlns="http://www.w3.org/2000/svg">
 <path d="m16.19 2h-8.37c-3.64 0-5.81 2.17-5.81 5.81v8.37c0 3.64 2.17 5.81 5.81 5.81h8.37c3.64 0 5.81-2.17 5.81-5.81v-8.37c0-3.64-2.17-5.81-5.81-5.81z" opacity=".4"/>
 <path d="m16.14 6.7099c-0.34-0.26-0.9401-0.51-1.9001-0.25l-2.9899 0.82001c-0.93 0.25-1.54 1.04-1.54 2.01v3.78c-0.21-0.06-0.42003-0.1001-0.65003-0.1001-1.29 0-2.34 1.0501-2.34 2.3401s1.05 2.34 2.34 2.34c1.28 0 2.32-1.04 2.34-2.31 0-0.01 0.0099-0.02 0.0099-0.03v-3.62l3.7801-1.03v1.42c-0.21-0.06-0.4201-0.1-0.6501-0.1-1.29 0-2.3399 1.05-2.3399 2.34s1.0499 2.34 2.3399 2.34 2.3401-1.05 2.3401-2.34v-5.83c0-1-0.41-1.52-0.74-1.78zm-7.08 9.25c-0.36 0-0.65002-0.29-0.65002-0.65s0.29002-0.65 0.65002-0.65 0.65003 0.29 0.65003 0.65-0.29003 0.65-0.65003 0.65zm5.48-1c-0.36 0-0.6499-0.29-0.6499-0.65s0.2899-0.65 0.6499-0.65 0.6501 0.29 0.6501 0.65c-0.01 0.36-0.3001 0.65-0.6501 0.65z"/>
</svg>
